woocommerce/payment-gateway/assets/images/card-cc-invalid.svg

<svg width="240" height="150" viewBox="0 0 240 150" fill="none" xmlns="http://www.w3.org/2000/svg">
<path d="M63.5455 92.6471C61.9059 92.6471 60.3336 91.9963 59.1742 90.838C58.0149 89.6797 57.3636 88.1087 57.3636 86.4706V49.4118C57.3636 48.5927 57.6893 47.8072 58.2689 47.2281C58.8486 46.6489 59.6348 46.3235 60.4545 46.3235H165.545C166.365 46.3235 167.151 46.6489 167.731 47.2281C168.311 47.8072 168.636 48.5927 168.636 49.4118V56.5209C168.637 57.7387 169.004 58.9281 169.691 59.934C170.378 60.9399 171.353 61.7156 172.488 62.16L172.617 62.2094C173.542 62.5851 174.545 62.7278 175.538 62.6251C176.531 62.5223 177.484 62.1772 178.312 61.6202C179.14 61.0631 179.818 60.3112 180.287 59.4306C180.756 58.55 181.001 57.5677 181 56.5703V18.5294C181 13.6151 179.046 8.90208 175.568 5.42714C172.09 1.9522 167.373 0 162.455 0L63.5455 0C58.6269 0 53.9098 1.9522 50.4318 5.42714C46.9539 8.90208 45 13.6151 45 18.5294V86.4706C45 91.3849 46.9539 96.0979 50.4318 99.5729C53.9098 103.048 58.6269 105 63.5455 105H97.836C99.1423 104.966 100.4 104.496 101.408 103.666C102.416 102.835 103.117 101.692 103.4 100.417L103.492 100.059C103.761 99.2111 103.827 98.3123 103.685 97.4345C103.543 96.5567 103.198 95.7242 102.676 95.0038C102.155 94.2834 101.472 93.695 100.681 93.2857C99.8914 92.8765 99.0164 92.6577 98.1265 92.6471H63.5455ZM57.3636 18.5294C57.3636 16.8913 58.0149 15.3203 59.1742 14.162C60.3336 13.0037 61.9059 12.3529 63.5455 12.3529H162.455C164.094 12.3529 165.666 13.0037 166.826 14.162C167.985 15.3203 168.636 16.8913 168.636 18.5294V24.7059C168.636 25.5249 168.311 26.3104 167.731 26.8896C167.151 27.4688 166.365 27.7941 165.545 27.7941H60.4545C59.6348 27.7941 58.8486 27.4688 58.2689 26.8896C57.6893 26.3104 57.3636 25.5249 57.3636 24.7059V18.5294Z" fill="#485F6F"/>
<path d="M94 68H76C74.4087 68 72.8826 68.6848 71.7574 69.9038C70.6321 71.1228 70 72.7761 70 74.5C70 76.2239 70.6321 77.8772 71.7574 79.0962C72.8826 80.3152 74.4087 81 76 81H94C95.5913 81 97.1174 80.3152 98.2426 79.0962C99.3679 77.8772 100 76.2239 100 74.5C100 72.7761 99.3679 71.1228 98.2426 69.9038C97.1174 68.6848 95.5913 68 94 68V68Z" fill="#485F6F"/>
<path d="M154 67C145.891 67 137.964 69.3753 131.222 73.8255C124.479 78.2757 119.224 84.6009 116.121 92.0013C113.018 99.4017 112.206 107.545 113.788 115.401C115.37 123.257 119.275 130.474 125.009 136.138C130.743 141.802 138.048 145.659 146.001 147.222C153.955 148.784 162.198 147.982 169.69 144.917C177.182 141.852 183.585 136.661 188.09 130.001C192.595 123.34 195 115.51 195 107.5C195 96.7587 190.68 86.4574 182.991 78.8622C175.302 71.2669 164.874 67 154 67V67ZM173.112 119.775C173.577 120.202 173.95 120.718 174.208 121.292C174.467 121.865 174.606 122.484 174.617 123.111C174.628 123.738 174.512 124.362 174.274 124.944C174.036 125.526 173.682 126.054 173.232 126.498C172.783 126.942 172.248 127.291 171.659 127.526C171.07 127.761 170.439 127.877 169.804 127.866C169.169 127.855 168.542 127.717 167.962 127.462C167.382 127.207 166.859 126.838 166.426 126.379L155.116 115.207C154.819 114.917 154.418 114.755 154 114.755C153.582 114.755 153.181 114.917 152.884 115.207L141.574 126.379C140.677 127.205 139.491 127.654 138.265 127.633C137.04 127.611 135.87 127.121 135.004 126.265C134.137 125.409 133.64 124.253 133.619 123.043C133.597 121.832 134.052 120.66 134.888 119.775L146.197 108.603C146.491 108.309 146.655 107.913 146.655 107.5C146.655 107.087 146.491 106.691 146.197 106.397L134.888 95.2254C134.052 94.3395 133.597 93.1678 133.619 91.9572C133.64 90.7466 134.137 89.5915 135.004 88.7353C135.87 87.8791 137.04 87.3886 138.265 87.3673C139.491 87.3459 140.677 87.7953 141.574 88.6208L152.884 99.7925C153.181 100.082 153.582 100.245 154 100.245C154.418 100.245 154.819 100.082 155.116 99.7925L166.426 88.6208C167.323 87.7953 168.509 87.3459 169.735 87.3673C170.96 87.3886 172.13 87.8791 172.996 88.7353C173.863 89.5915 174.36 90.7466 174.381 91.9572C174.403 93.1678 173.948 94.3395 173.112 95.2254L161.803 106.397C161.509 106.691 161.345 107.087 161.345 107.5C161.345 107.913 161.509 108.309 161.803 108.603L173.112 119.775Z" fill="#485F6F"/>
</svg>

<svg width="240" height="150" fill="none" xmlns="http://www.w3.org/2000/svg"><path d="M63.545 92.647c-1.64 0-3.211-.65-4.37-1.809a6.174 6.174 0 01-1.811-4.367V49.41a3.087 3.087 0 013.09-3.087h105.091a3.093 3.093 0 013.091 3.088v7.109a6.06 6.06 0 003.852 5.639l.129.05a6.096 6.096 0 007.67-2.78c.469-.88.714-1.862.713-2.86V18.53c0-4.915-1.954-9.628-5.432-13.103A18.553 18.553 0 00162.455 0h-98.91a18.554 18.554 0 00-13.113 5.427A18.521 18.521 0 0045 18.53v67.942c0 4.914 1.954 9.627 5.432 13.102A18.553 18.553 0 0063.545 105h34.291a5.854 5.854 0 005.564-4.583l.092-.358a5.679 5.679 0 00-.816-5.055 5.7 5.7 0 00-4.55-2.357h-34.58zM57.364 18.53c0-1.638.65-3.209 1.81-4.367a6.185 6.185 0 014.371-1.81h98.91c1.639 0 3.211.652 4.371 1.81a6.174 6.174 0 011.81 4.367v6.177a3.085 3.085 0 01-3.091 3.088H60.455a3.092 3.092 0 01-3.091-3.088v-6.177z" fill="#485F6F"/><path d="M94 68H76c-1.591 0-3.117.685-4.243 1.904C70.632 71.123 70 72.776 70 74.5c0 1.724.632 3.377 1.757 4.596C72.883 80.316 74.41 81 76 81h18c1.591 0 3.117-.685 4.243-1.904C99.368 77.877 100 76.224 100 74.5c0-1.724-.632-3.377-1.757-4.596C97.117 68.684 95.59 68 94 68zM154 67a41.359 41.359 0 00-22.778 6.826A40.607 40.607 0 00116.121 92a40.043 40.043 0 00-2.333 23.4 40.351 40.351 0 0011.221 20.737 41.16 41.16 0 0020.992 11.084 41.48 41.48 0 0023.689-2.305 40.891 40.891 0 0018.4-14.916A40.154 40.154 0 00195 107.5c0-10.741-4.32-21.043-12.009-28.638C175.302 71.267 164.874 67 154 67zm19.112 52.775a4.646 4.646 0 011.505 3.336 4.629 4.629 0 01-1.385 3.387 4.726 4.726 0 01-1.573 1.028 4.784 4.784 0 01-3.697-.064 4.73 4.73 0 01-1.536-1.083l-11.31-11.172a1.597 1.597 0 00-1.116-.452c-.418 0-.819.162-1.116.452l-11.31 11.172a4.764 4.764 0 01-3.309 1.254 4.761 4.761 0 01-3.261-1.368 4.643 4.643 0 01-1.385-3.222 4.636 4.636 0 011.269-3.268l11.309-11.172a1.559 1.559 0 000-2.206l-11.309-11.172a4.638 4.638 0 01-1.269-3.268 4.642 4.642 0 011.385-3.222 4.757 4.757 0 013.261-1.368 4.764 4.764 0 013.309 1.254l11.31 11.172a1.6 1.6 0 002.232 0l11.31-11.172a4.764 4.764 0 013.309-1.254 4.757 4.757 0 013.261 1.368 4.642 4.642 0 011.385 3.222 4.638 4.638 0 01-1.269 3.268l-11.309 11.172a1.559 1.559 0 000 2.206l11.309 11.172z" fill="#485F6F"/></svg>
